Numix/16/status/indicator-keyboard-Gr.svg

<?xml version="1.0" encoding="UTF-8" standalone="no"?>
<svg
   xmlns:dc="http://purl.org/dc/elements/1.1/"
   xmlns:cc="http://creativecommons.org/ns#"
   xmlns:rdf="http://www.w3.org/1999/02/22-rdf-syntax-ns#"
   xmlns:svg="http://www.w3.org/2000/svg"
   xmlns="http://www.w3.org/2000/svg"
   xmlns:sodipodi="http://sodipodi.sourceforge.net/DTD/sodipodi-0.dtd"
   xmlns:inkscape="http://www.inkscape.org/namespaces/inkscape"
   viewBox="0 0 16 16"
   id="svg2"
   version="1.1"
   inkscape:version="0.91 r13725"
   sodipodi:docname="indicator-keyboard-Gr.svg">
  <metadata
     id="metadata13">
    <rdf:RDF>
      <cc:Work
         rdf:about="">
        <dc:format>image/svg+xml</dc:format>
        <dc:type
           rdf:resource="http://purl.org/dc/dcmitype/StillImage" />
      </cc:Work>
    </rdf:RDF>
  </metadata>
  <defs
     id="defs11" />
  <sodipodi:namedview
     pagecolor="#ffffff"
     bordercolor="#666666"
     borderopacity="1"
     objecttolerance="10"
     gridtolerance="10"
     guidetolerance="10"
     inkscape:pageopacity="0"
     inkscape:pageshadow="2"
     inkscape:window-width="640"
     inkscape:window-height="480"
     id="namedview9"
     showgrid="false"
     inkscape:zoom="14.75"
     inkscape:cx="8"
     inkscape:cy="8"
     inkscape:window-x="65"
     inkscape:window-y="24"
     inkscape:window-maximized="0"
     inkscape:current-layer="svg2" />
  <path
     style="fill:#ececec;fill-opacity:1"
     d="M 1.5996094 0 C 0.71320937 2.9605947e-16 0 0.71320937 0 1.5996094 L 0 14.400391 C 2.9605947e-16 15.286791 0.71320937 16 1.5996094 16 L 14.400391 16 C 15.286791 16 16 15.286791 16 14.400391 L 16 1.5996094 C 16 0.71320937 15.286791 0 14.400391 0 L 1.5996094 0 z M 6.6230469 4.7519531 C 7.0850469 4.7519531 7.465625 4.8022969 7.765625 4.9042969 C 8.065625 5.0002969 8.283875 5.0935938 8.421875 5.1835938 L 8.2148438 5.7050781 C 8.0468438 5.5850781 7.81925 5.4899687 7.53125 5.4179688 C 7.24325 5.3399688 6.9317031 5.3007812 6.5957031 5.3007812 C 6.2837031 5.3007812 5.9888906 5.3567031 5.7128906 5.4707031 C 5.4368906 5.5847031 5.1961875 5.756375 4.9921875 5.984375 C 4.7881875 6.212375 4.6278125 6.4940781 4.5078125 6.8300781 C 4.3938125 7.1660781 4.3359375 7.556 4.3359375 8 C 4.3359375 8.414 4.3844687 8.789 4.4804688 9.125 C 4.5764688 9.455 4.7201094 9.7404687 4.9121094 9.9804688 C 5.1101094 10.214469 5.352625 10.393531 5.640625 10.519531 C 5.928625 10.645531 6.262625 10.708984 6.640625 10.708984 C 6.946625 10.708984 7.2002969 10.694063 7.4042969 10.664062 C 7.6142969 10.628063 7.756125 10.594453 7.828125 10.564453 L 7.828125 8.171875 L 8.4394531 8.171875 L 8.4394531 10.951172 C 8.3254531 10.999172 8.101625 11.060812 7.765625 11.132812 C 7.435625 11.210813 7.0270156 11.248047 6.5410156 11.248047 C 6.1330156 11.248047 5.75425 11.177203 5.40625 11.033203 C 5.05825 10.889203 4.7560469 10.682109 4.4980469 10.412109 C 4.2460469 10.136109 4.0482969 9.7965313 3.9042969 9.3945312 C 3.7602969 8.9865312 3.6875 8.522 3.6875 8 C 3.6875 7.478 3.765875 7.0152813 3.921875 6.6132812 C 4.077875 6.2052812 4.2887344 5.8676563 4.5527344 5.5976562 C 4.8227344 5.3216563 5.1342813 5.1107969 5.4882812 4.9667969 C 5.8422812 4.8227969 6.2210469 4.7519531 6.6230469 4.7519531 z M 11.412109 6.3808594 C 11.604109 6.3808594 11.783172 6.3957812 11.951172 6.4257812 C 12.125172 6.4557813 12.2465 6.485625 12.3125 6.515625 L 12.195312 7.0195312 C 12.147313 6.9955313 12.048437 6.9712656 11.898438 6.9472656 C 11.754437 6.9172656 11.562266 6.9023437 11.322266 6.9023438 C 11.070266 6.9023438 10.864984 6.9190781 10.708984 6.9550781 C 10.558984 6.9910781 10.460109 7.022875 10.412109 7.046875 L 10.412109 11.123047 L 9.828125 11.123047 L 9.828125 6.6855469 C 9.9781249 6.6195469 10.185219 6.5542813 10.449219 6.4882812 C 10.713219 6.4162813 11.034109 6.3808594 11.412109 6.3808594 z "
     id="path4" />
</svg>

<svg xmlns="http://www.w3.org/2000/svg" viewBox="0 0 16 16">
 <path d="m 1.6 0 c -0.886 0 -1.6 0.713 -1.6 1.6 l 0 12.801 c 0 0.886 0.713 1.6 1.6 1.6 l 12.801 0 c 0.886 0 1.6 -0.713 1.6 -1.6 l 0 -12.801 c 0 -0.886 -0.713 -1.6 -1.6 -1.6 l -12.801 0 z m 5.02 4.752 c 0.462 0 0.843 0.05 1.143 0.152 c 0.3 0.096 0.518 0.189 0.656 0.279 l -0.207 0.521 c -0.168 -0.12 -0.396 -0.215 -0.684 -0.287 c -0.288 -0.078 -0.6 -0.117 -0.936 -0.117 c -0.312 0 -0.607 0.056 -0.883 0.17 c -0.276 0.114 -0.517 0.286 -0.721 0.514 c -0.204 0.228 -0.364 0.51 -0.484 0.846 c -0.114 0.336 -0.172 0.726 -0.172 1.17 c 0 0.414 0.049 0.789 0.145 1.125 c 0.096 0.33 0.24 0.615 0.432 0.855 c 0.198 0.234 0.441 0.413 0.729 0.539 c 0.288 0.126 0.622 0.189 1 0.189 c 0.306 0 0.56 -0.015 0.764 -0.045 c 0.21 -0.036 0.352 -0.07 0.424 -0.1 l 0 -2.393 l 0.611 0 l 0 2.779 c -0.114 0.048 -0.338 0.11 -0.674 0.182 c -0.33 0.078 -0.739 0.115 -1.225 0.115 c -0.408 0 -0.787 -0.071 -1.135 -0.215 c -0.348 -0.144 -0.65 -0.351 -0.908 -0.621 c -0.252 -0.276 -0.45 -0.616 -0.594 -1.018 c -0.144 -0.408 -0.217 -0.873 -0.217 -1.395 c 0 -0.522 0.078 -0.985 0.234 -1.387 c 0.156 -0.408 0.367 -0.746 0.631 -1.016 c 0.27 -0.276 0.582 -0.487 0.936 -0.631 c 0.354 -0.144 0.733 -0.215 1.135 -0.215 z m 4.789 1.629 c 0.192 0 0.371 0.015 0.539 0.045 c 0.174 0.03 0.295 0.06 0.361 0.09 l -0.117 0.504 c -0.048 -0.024 -0.147 -0.048 -0.297 -0.072 c -0.144 -0.03 -0.336 -0.045 -0.576 -0.045 c -0.252 0 -0.457 0.017 -0.613 0.053 c -0.15 0.036 -0.249 0.068 -0.297 0.092 l 0 4.076 l -0.584 0 l 0 -4.438 c 0.15 -0.066 0.357 -0.131 0.621 -0.197 c 0.264 -0.072 0.585 -0.107 0.963 -0.107 z" style="fill:#ececec;fill-opacity:1"/>
</svg>
